assets/fc/fc-combo-chart.svg

<svg xmlns="http://www.w3.org/2000/svg" width="100%" height="100%" viewBox="0 0 48 48"><g fill="#00BCD4"><path d="M37 18h6v24h-6zM29 26h6v16h-6zM21 22h6v20h-6zM13 32h6v10h-6zM5 28h6v14H5z"/></g><g fill="#3F51B5"><circle cx="8" cy="16" r="3"/><circle cx="16" cy="18" r="3"/><circle cx="24" cy="11" r="3"/><circle cx="32" cy="13" r="3"/><circle cx="40" cy="9" r="3"/><path d="M39.1 7.2l-7.3 3.7-8.3-2.1-8 7-7-1.7-1 3.8 9 2.3 8-7 7.7 1.9 8.7-4.3z"/></g></svg>

<svg xmlns="http://www.w3.org/2000/svg" width="100%" height="100%" viewBox="0 0 48 48"><g fill="#00BCD4"><path d="M37 18H43V42H37zM29 26H35V42H29zM21 22H27V42H21zM13 32H19V42H13zM5 28H11V42H5z"/></g><g fill="#3F51B5"><circle cx="8" cy="16" r="3"/><circle cx="16" cy="18" r="3"/><circle cx="24" cy="11" r="3"/><circle cx="32" cy="13" r="3"/><circle cx="40" cy="9" r="3"/><path d="M39.1 7.2L31.8 10.9 23.5 8.8 15.5 15.8 8.5 14.1 7.5 17.9 16.5 20.2 24.5 13.2 32.2 15.1 40.9 10.8z"/></g></svg>
